X: 609
T: Muniera de Chantada
B: good tune book
B: tunes
M:6/8
R: jig
Q: 3/8=100
K:Dminor
V:1 
A|:D3 EFG|A3A2A|AGA B2A|
 A3 E3|E3 FGA|B3BAG|ABA GFE|
 F2E D2A|D3 EFG|A3A2A|AGA d2c|
 c3 B3|Bcd e2d|d3 A3|ABA GFE|1 D3D2A:|2 D3d2^c||
 K:D
 |:A2B c2A|B3 A2G|E2F G2A|
 F2D d2c|A2B c2A|B3 A2G|E2F G2A|1 D3d2c:|2 D3DdA||
 |:c2B2GE|B2A2FD|A2G2EC|
 B2A2dA|c2B2GE|B2A2FD|A2G2EF|1 D3DdA:|2 D3D2||
% abcbook-tune_id 63dce69c0a03f0005b03d24a
% abcbook-tune_composer_id 
% abcbook-link-0 https://www.youtube.com/watch?v=MkV-eJ6awpw
% abcbook-link-start-at-0 5
% abcbook-boost 0
% abcbook-difficulty 0
% abcbook-tags good tune book
% abcbook-tablature 
% abcbook-transpose 
% abcbook-tuning 
% abcbook-lastupdated 1675476238553
% abcbook-soundfonts 
% abcbook-repeats 1


